svgs/duotone/hospital-user.svg

<svg xmlns="http://www.w3.org/2000/svg" viewBox="0 0 576 512"><!--! Font Awesome Pro 6.4.2 by @fontawesome - https://fontawesome.com License - https://fontawesome.com/license (Commercial License) Copyright 2023 Fonticons, Inc. --><path class="fa-primary" style="fill:var(--fa-primary-color,inherit);opacity:var(--fa-primary-opacity,1);" d="M432 352a80 80 0 1 0 0-160 80 80 0 1 0 0 160zm-50.9 32c-51.4 0-93.1 41.7-93.1 93.1c0 19.3 15.6 34.9 34.9 34.9H541.1c19.3 0 34.9-15.6 34.9-34.9c0-51.4-41.7-93.1-93.1-93.1H381.1z"/><path class="fa-secondary" style="fill:var(--fa-secondary-color,inherit);opacity:var(--fa-secondary-opacity,.4);" d="M0 48C0 21.5 21.5 0 48 0H272c26.5 0 48 21.5 48 48V271.8v95.9c-38.2 21.4-64 62.3-64 109.2c0 12.9 3.6 24.9 9.9 35.1H48c-26.5 0-48-21.5-48-48V384H144c8.8 0 16-7.2 16-16s-7.2-16-16-16H0V288H144c8.8 0 16-7.2 16-16s-7.2-16-16-16H0V48zM136 80v24H112c-8.8 0-16 7.2-16 16v16c0 8.8 7.2 16 16 16h24v24c0 8.8 7.2 16 16 16h16c8.8 0 16-7.2 16-16V152h24c8.8 0 16-7.2 16-16V120c0-8.8-7.2-16-16-16H184V80c0-8.8-7.2-16-16-16H152c-8.8 0-16 7.2-16 16z"/></svg>

<svg xmlns="http://www.w3.org/2000/svg" viewBox="0 0 576 512"><!--! Font Awesome Pro 6.1.1 by @fontawesome - https://fontawesome.com License - https://fontawesome.com/license (Commercial License) Copyright 2022 Fonticons, Inc. --><defs><style>.fa-secondary{opacity:.4}</style></defs><path class="fa-primary" d="M352 272C352 227.8 387.8 192 432 192C476.2 192 512 227.8 512 272C512 316.2 476.2 352 432 352C387.8 352 352 316.2 352 272zM482.9 384C534.3 384 576 425.7 576 477.1C576 496.4 560.4 512 541.1 512H322.9C303.6 512 288 496.4 288 477.1C288 425.7 329.7 384 381.1 384H482.9z"/><path class="fa-secondary" d="M0 48C0 21.49 21.49 0 48 0H272C298.5 0 320 21.49 320 48V367.8C281.8 389.2 256 430 256 476.9C256 489.8 259.6 501.8 265.9 512H48C21.49 512 0 490.5 0 464V384H144C152.8 384 160 376.8 160 368C160 359.2 152.8 352 144 352H0V288H144C152.8 288 160 280.8 160 272C160 263.2 152.8 256 144 256H0V48zM136 104H112C103.2 104 96 111.2 96 120V136C96 144.8 103.2 152 112 152H136V176C136 184.8 143.2 192 152 192H168C176.8 192 184 184.8 184 176V152H208C216.8 152 224 144.8 224 136V120C224 111.2 216.8 104 208 104H184V80C184 71.16 176.8 64 168 64H152C143.2 64 136 71.16 136 80V104z"/></svg>
